public/img/decorations/deco-lines-4.svg

<svg width="177" height="40" viewBox="0 0 177 40" fill="none" xmlns="http://www.w3.org/2000/svg">
<path d="M176.123 39.7359C175.478 39.7539 174.855 39.8269 174.242 39.7769C170.656 39.4889 167.072 39.1749 163.49 38.8589C163.013 38.8179 162.523 38.7829 162.074 38.6339C159.541 37.7899 156.908 37.6619 154.277 37.4949C151.484 37.3189 148.693 37.1279 145.904 36.9159C137.927 36.3109 129.935 36.1449 121.943 35.9849C118.191 35.9109 114.437 35.8699 110.683 35.8189C102.611 35.7079 94.5379 35.6229 86.4659 35.4789C82.5519 35.4109 78.6399 35.2639 74.7279 35.0959C71.1379 34.9419 67.5439 34.7819 63.9619 34.4979C60.3799 34.2139 56.8099 33.7729 53.2349 33.4039C51.0919 33.1829 48.9479 32.9899 46.8089 32.7499C42.6819 32.2869 38.5469 31.8829 34.4379 31.2949C30.8849 30.7849 27.3699 30.0239 23.8269 29.4309C20.5199 28.8769 17.1999 28.3969 13.8859 27.8889C11.3609 27.4999 8.83285 27.1369 6.31185 26.7229C5.20285 26.5409 4.11485 26.3279 2.99585 26.6609C2.29285 26.8699 1.78286 26.5279 1.31986 26.0139C0.505856 25.1049 0.385845 24.0069 0.436845 22.8759C0.461845 22.3359 0.838856 21.9889 1.37586 21.9639C1.93086 21.9399 2.49286 21.9869 3.04586 22.0559C6.45786 22.4729 9.86185 22.9469 13.2759 23.3229C20.2719 24.0939 27.1859 25.3849 34.1159 26.5539C38.4599 27.2879 42.8209 27.7809 47.1899 28.2399C52.3519 28.7829 57.5399 29.0959 62.6979 29.6599C70.4149 30.5039 78.1509 30.8669 85.9049 30.9709C91.2549 31.0409 96.6079 30.9939 101.958 31.0969C110.19 31.2539 118.419 31.5019 126.651 31.6919C129.368 31.7549 132.09 31.6799 134.805 31.7969C140.793 32.0589 146.785 32.3089 152.764 32.7369C158.817 33.1709 164.856 33.7929 170.897 34.3809C172.083 34.4959 173.258 34.7829 174.413 35.0909C174.829 35.2019 175.374 35.5309 175.505 35.8909C175.936 37.0619 176.463 38.2559 176.123 39.7359Z" fill="black"/>
<path d="M8.59619 2.86295C9.31119 2.68995 9.8322 2.44794 10.3482 2.45994C12.0262 2.50094 13.7002 2.61996 15.3752 2.73396C18.9572 2.97896 22.5372 3.38394 26.1252 3.46394C34.9862 3.66194 43.8482 4.19895 52.7172 3.69795C56.8622 3.46395 61.0102 3.29694 65.1562 3.11594C67.5492 3.01194 69.9432 2.94496 72.3382 2.85896C72.9772 2.83596 73.6172 2.83496 74.2542 2.77296C79.5842 2.25296 84.9402 2.22594 90.2852 1.97794C94.1152 1.79894 97.9432 1.54695 101.773 1.40995C106.324 1.24595 110.878 1.03995 115.427 1.08195C126.302 1.18295 137.167 0.948947 148.034 0.624947C152.343 0.496947 156.663 0.595932 160.975 0.665932C162.409 0.688932 163.836 0.932932 165.266 1.09693C166.348 1.22193 167.248 1.73193 167.893 2.59693C168.588 3.52993 169.555 4.32993 169.649 5.80393C169.17 5.89993 168.731 6.08594 168.307 6.05494C166 5.88594 163.702 5.60994 161.395 5.47794C159.723 5.38294 158.04 5.41296 156.362 5.46296C151.022 5.62196 145.682 5.83394 140.342 5.98594C138.186 6.04794 136.028 6.00095 133.869 6.01395C131.715 6.02795 129.558 6.08295 127.404 6.07295C122.779 6.04895 118.152 5.89295 113.529 5.97895C108.021 6.08195 102.519 6.37894 97.0132 6.59394C95.5832 6.64994 94.1542 6.69794 92.7262 6.77094C89.8612 6.91894 86.9942 7.07094 84.1302 7.24494C81.2592 7.41894 78.3923 7.63895 75.5232 7.80695C72.4962 7.98495 69.4641 8.10595 66.4391 8.28895C63.4141 8.47195 60.3922 8.73296 57.3672 8.90296C50.7422 9.27496 44.1111 9.18295 37.4821 9.08695C35.1731 9.05395 32.8751 8.75994 30.5681 8.62794C25.3981 8.32994 20.2342 7.82095 15.0912 7.19495C13.5952 7.01295 12.1141 6.83094 10.6111 6.80994C9.65219 6.79594 9.0642 6.40194 8.8842 5.53394C8.7292 4.76394 8.70919 3.96395 8.59619 2.86295Z" fill="black"/>
</svg>

<svg width="177" height="40" fill="none" xmlns="http://www.w3.org/2000/svg"><path d="M176.123 39.736c-.645.018-1.268.09-1.881.04-3.586-.287-7.17-.601-10.752-.917-.477-.041-.967-.076-1.416-.225-2.533-.844-5.166-.972-7.797-1.14a648.823 648.823 0 01-8.373-.578c-7.977-.605-15.969-.771-23.961-.931-3.752-.074-7.506-.115-11.26-.166-8.072-.111-16.145-.196-24.217-.34-3.914-.068-7.826-.215-11.738-.383-3.59-.154-7.184-.314-10.766-.598s-7.152-.725-10.727-1.094c-2.143-.221-4.287-.414-6.426-.654-4.127-.463-8.262-.867-12.371-1.455-3.553-.51-7.068-1.271-10.611-1.864-3.307-.554-6.627-1.034-9.941-1.542-2.525-.39-5.053-.752-7.574-1.166-1.11-.182-2.197-.395-3.316-.062-.703.209-1.213-.133-1.676-.647-.814-.91-.934-2.007-.883-3.138.025-.54.402-.887.939-.912.555-.024 1.117.023 1.67.092 3.412.417 6.816.89 10.23 1.267 6.996.77 13.91 2.062 20.84 3.23 4.344.735 8.705 1.228 13.074 1.687 5.162.543 10.35.856 15.508 1.42 7.717.844 15.453 1.207 23.207 1.31 5.35.07 10.703.024 16.053.127 8.232.157 16.461.405 24.693.595 2.717.063 5.439-.012 8.154.105 5.988.262 11.98.512 17.959.94 6.053.434 12.092 1.056 18.133 1.644 1.186.115 2.361.402 3.516.71.416.11.961.44 1.092.8.431 1.17.958 2.365.618 3.845zM8.596 2.863c.715-.173 1.236-.415 1.752-.403 1.678.04 3.352.16 5.027.274 3.582.245 7.162.65 10.75.73 8.861.198 17.723.735 26.592.234 4.145-.234 8.293-.401 12.44-.582 2.392-.104 4.786-.171 7.181-.257.64-.023 1.28-.024 1.916-.086 5.33-.52 10.686-.547 16.031-.795 3.83-.18 7.658-.431 11.488-.568 4.551-.164 9.105-.37 13.654-.328 10.875.1 21.74-.133 32.607-.457 4.309-.128 8.629-.03 12.941.04 1.434.024 2.861.268 4.291.432 1.082.125 1.982.635 2.627 1.5.695.933 1.662 1.733 1.756 3.207-.479.096-.918.282-1.342.25-2.307-.168-4.605-.444-6.912-.576-1.672-.095-3.355-.065-5.033-.015-5.34.159-10.68.37-16.02.523-2.156.062-4.314.015-6.473.028-2.154.014-4.311.069-6.465.059-4.625-.024-9.252-.18-13.875-.094-5.508.103-11.01.4-16.516.615-1.43.056-2.859.104-4.287.177-2.865.148-5.732.3-8.596.474-2.87.174-5.738.394-8.607.562-3.027.178-6.059.299-9.084.482-3.025.183-6.047.444-9.072.614-6.625.372-13.256.28-19.885.184-2.309-.033-4.607-.327-6.914-.46-5.17-.297-10.334-.806-15.477-1.432-1.496-.182-2.977-.364-4.48-.385-.959-.014-1.547-.408-1.727-1.276-.155-.77-.175-1.57-.288-2.671z" fill="#000"/></svg>
